X: 0922
T: PANHARMONICON MARCH
B: Oliver Ditson "The Boston Collection of Instrumental Music" 1910 p.92 #2
F: http://conquest.imslp.info/files/imglnks/usimg/8/8f/IMSLP175643-PMLP309456-bostoncollection00bost_bw.pdf
%: 2012 John Chambers <jc:trillian.mit.edu>
M: 4/4
L: 1/8
K: C
|:\
c2c>c c2e2 | d2d>d d2g2 | d2d>d d2f2 | e2e>e e2fg | agfe agfe | d2d>d d2z2 :| d2d>d f2d2 |
e2ef agfe | d2d>d f2d2 | e2ef agfe | a2a>a c'2a2 | g3c' bagf | egce dfBd | c2c>c c2z2 :|

%%sep 1 1 500
%%sep 1 1 500
